X:3410
T:EG-engelska
C:Johan Christopher Cronholm (1750-1809)
O:Blekinge
M:C|
L:1/8
Q:1/4=160
Z:Peter Svensson
R:Engelska
K:G
   G2 BG A2 A2 | G2 BG A4 | G2 BG Ac BA | G2 D2 B,2 G,2 :|
|: g2 gd e2 ec | d2 dB c4 | B2 AG Ac BA | G2 D2 B,2 G,2 :|
|: B2 Bd c2 c2 | B2 Bd c4 | B2 AG Ac BA | G4 G4         :|
(:musicend:)
(:music:)
